files/en-us/learn/javascript/objects/object_prototypes/mydate-prototype-chain.svg

<svg xmlns="http://www.w3.org/2000/svg" style="background-color:#fff" xmlns:xlink="http://www.w3.org/1999/xlink" width="1087" height="192" viewBox="-0.5 -0.5 1087 192"><path fill="#fff" stroke="#000" stroke-width="1.5" pointer-events="all" d="M19.5 34.5h120v120h-120z"/><switch transform="matrix(1.5 0 0 1.5 -.5 -.5)"><foreignObject style="overflow:visible;text-align:left" pointer-events="none" width="100%" height="100%" requiredFeatures="http://www.w3.org/TR/SVG11/feature#Extensibility"><div xmlns="http://www.w3.org/1999/xhtml" style="display:flex;align-items:unsafe center;justify-content:unsafe center;width:78px;height:1px;padding-top:63px;margin-left:14px"><div style="box-sizing:border-box;font-size:0;text-align:center"><div style="display:inline-block;font-size:12px;font-family:Helvetica;color:#000;line-height:1.2;pointer-events:all;white-space:normal;word-wrap:normal"><font>myDate</font></div></div></div></foreignObject><text x="53" y="67" font-family="Helvetica" font-size="12" text-anchor="middle">myDate</text></switch><path fill="#fff" stroke="#000" stroke-width="1.5" pointer-events="all" d="M660 19.5h195v150H660z"/><switch transform="matrix(1.5 0 0 1.5 -.5 -.5)"><foreignObject style="overflow:visible;text-align:left" pointer-events="none" width="100%" height="100%" requiredFeatures="http://www.w3.org/TR/SVG11/feature#Extensibility"><div xmlns="http://www.w3.org/1999/xhtml" style="display:flex;align-items:unsafe center;justify-content:unsafe center;width:128px;height:1px;padding-top:63px;margin-left:441px"><div style="box-sizing:border-box;font-size:0;text-align:center"><div style="display:inline-block;font-size:12px;font-family:Helvetica;color:#000;line-height:1.2;pointer-events:all;white-space:normal;word-wrap:normal"><div><font/></div><div><font>Object.prototype</font></div><div><font/></div><div align="left"><font>hasOwnProperty()</font></div><div align="left"><font>isPrototypeOf()</font></div><div align="left"><font>...</font></div><div align="left"><font/></div></div></div></div></foreignObject><text x="505" y="67" font-family="Helvetica" font-size="12" text-anchor="middle">Object.prototype...</text></switch><path d="M495 94.5h155.45" fill="none" stroke="#000" stroke-width="1.5" stroke-miterlimit="10" pointer-events="stroke"/><path d="m658.32 94.5-10.5 5.25 2.63-5.25-2.63-5.25z" stroke="#000" stroke-width="1.5" stroke-miterlimit="10" pointer-events="all"/><switch transform="matrix(1.5 0 0 1.5 -.5 -.5)"><foreignObject style="overflow:visible;text-align:left" pointer-events="none" width="100%" height="100%" requiredFeatures="http://www.w3.org/TR/SVG11/feature#Extensibility"><div xmlns="http://www.w3.org/1999/xhtml" style="display:flex;align-items:unsafe center;justify-content:unsafe center;width:1px;height:1px;padding-top:64px;margin-left:384px"><div style="box-sizing:border-box;font-size:0;text-align:center"><div style="display:inline-block;font-size:11px;font-family:Helvetica;color:#000;line-height:1.2;pointer-events:all;background-color:#fff;white-space:nowrap"><font>__proto__</font></div></div></div></foreignObject><text x="384" y="67" font-family="Helvetica" font-size="11" text-anchor="middle">__proto__</text></switch><path fill="none" pointer-events="all" d="M1005 79.5h60v30h-60z"/><switch transform="matrix(1.5 0 0 1.5 -.5 -.5)"><foreignObject style="overflow:visible;text-align:left" pointer-events="none" width="100%" height="100%" requiredFeatures="http://www.w3.org/TR/SVG11/feature#Extensibility"><div xmlns="http://www.w3.org/1999/xhtml" style="display:flex;align-items:unsafe center;justify-content:unsafe center;width:38px;height:1px;padding-top:63px;margin-left:671px"><div style="box-sizing:border-box;font-size:0;text-align:center"><div style="display:inline-block;font-size:12px;font-family:Helvetica;color:#000;line-height:1.2;pointer-events:all;white-space:normal;word-wrap:normal"><font>null</font></div></div></div></foreignObject><text x="690" y="67" font-family="Helvetica" font-size="12" text-anchor="middle">null</text></switch><path d="M855 94.5h140.45" fill="none" stroke="#000" stroke-width="1.5" stroke-miterlimit="10" pointer-events="stroke"/><path d="m1003.32 94.5-10.5 5.25 2.63-5.25-2.63-5.25z" stroke="#000" stroke-width="1.5" stroke-miterlimit="10" pointer-events="all"/><switch transform="matrix(1.5 0 0 1.5 -.5 -.5)"><foreignObject style="overflow:visible;text-align:left" pointer-events="none" width="100%" height="100%" requiredFeatures="http://www.w3.org/TR/SVG11/feature#Extensibility"><div xmlns="http://www.w3.org/1999/xhtml" style="display:flex;align-items:unsafe center;justify-content:unsafe center;width:1px;height:1px;padding-top:64px;margin-left:615px"><div style="box-sizing:border-box;font-size:0;text-align:center"><div style="display:inline-block;font-size:11px;font-family:Helvetica;color:#000;line-height:1.2;pointer-events:all;background-color:#fff;white-space:nowrap"><font>__proto__</font></div></div></div></foreignObject><text x="615" y="67" font-family="Helvetica" font-size="11" text-anchor="middle">__proto__</text></switch><path fill="#fff" stroke="#000" stroke-width="1.5" pointer-events="all" d="M300 19.5h195v150H300z"/><switch transform="matrix(1.5 0 0 1.5 -.5 -.5)"><foreignObject style="overflow:visible;text-align:left" pointer-events="none" width="100%" height="100%" requiredFeatures="http://www.w3.org/TR/SVG11/feature#Extensibility"><div xmlns="http://www.w3.org/1999/xhtml" style="display:flex;align-items:unsafe center;justify-content:unsafe center;width:128px;height:1px;padding-top:63px;margin-left:201px"><div style="box-sizing:border-box;font-size:0;text-align:center"><div style="display:inline-block;font-size:12px;font-family:Helvetica;color:#000;line-height:1.2;pointer-events:all;white-space:normal;word-wrap:normal"><div><font/></div><div><font>Date.prototype</font></div><div><font/></div><div align="left"><font>getMonth()</font></div><div align="left"><font>getYear()</font></div><div align="left"><font>...</font></div><div align="left"><font/></div></div></div></div></foreignObject><text x="265" y="67" font-family="Helvetica" font-size="12" text-anchor="middle">Date.prototype...</text></switch><path d="M139.5 94.5h150.95" fill="none" stroke="#000" stroke-width="1.5" stroke-miterlimit="10" pointer-events="stroke"/><path d="m298.32 94.5-10.5 5.25 2.63-5.25-2.63-5.25z" stroke="#000" stroke-width="1.5" stroke-miterlimit="10" pointer-events="all"/><switch transform="matrix(1.5 0 0 1.5 -.5 -.5)"><foreignObject style="overflow:visible;text-align:left" pointer-events="none" width="100%" height="100%" requiredFeatures="http://www.w3.org/TR/SVG11/feature#Extensibility"><div xmlns="http://www.w3.org/1999/xhtml" style="display:flex;align-items:unsafe center;justify-content:unsafe center;width:1px;height:1px;padding-top:64px;margin-left:145px"><div style="box-sizing:border-box;font-size:0;text-align:center"><div style="display:inline-block;font-size:11px;font-family:Helvetica;color:#000;line-height:1.2;pointer-events:all;background-color:#fff;white-space:nowrap"><font>__proto__</font></div></div></div></foreignObject><text x="145" y="67" font-family="Helvetica" font-size="11" text-anchor="middle">__proto__</text></switch><switch><a transform="translate(0 -5)" xlink:href="https://www.diagrams.net/doc/faq/svg-export-text-problems" target="_blank"><text text-anchor="middle" font-size="10" x="50%" y="100%">Viewer does not support full SVG 1.1</text></a></switch></svg>

<?xml version="1.0" encoding="UTF-8"?>
<!DOCTYPE svg PUBLIC "-//W3C//DTD SVG 1.1//EN" "http://www.w3.org/Graphics/SVG/1.1/DTD/svg11.dtd">
<svg xmlns="http://www.w3.org/2000/svg" style="background-color: rgb(255, 255, 255);" xmlns:xlink="http://www.w3.org/1999/xlink" version="1.1" width="1087px" height="192px" viewBox="-0.5 -0.5 1087 192" content="&lt;mxfile host=&quot;app.diagrams.net&quot; modified=&quot;2021-12-16T19:09:11.615Z&quot; agent=&quot;5.0 (Macintosh)&quot; etag=&quot;KAqihEogYyI5f0tDcQlc&quot; version=&quot;14.6.13&quot;&gt;&lt;diagram id=&quot;2GsisWjik9I1s0mvLGto&quot; name=&quot;Page-1&quot;&gt;7VnbctowEP0aZtqHMMY2hj4GyKUzScMMnVyeGIFlW8VYriwuztdXxpLvJgZMCUleEmslrVa7R3s2m4bSn69vCHCte6xDuyFL+rqhDBqy3P3RZj8DgR8KVKUbCkyC9FDUigUj9Aq5UOLSBdKhl1pIMbYpctPCKXYcOKUpGSAEr9LLDGynT3WBCXOC0RTYeekT0qnFr9WWYvktRKYlTm5JfGYOxGIu8Cyg41VCpFw1lD7BmIZf83Uf2oHvhF/Cfdcls5FhBDq0yoZbf/aoyJetznKmdq/JsNP/bV5wLUtgL/iFG7JmM309AzO1zGFgGk5ofxeBpb0+XhAECZv6BVexmH2Zwe+5PwAUCiXMmlBPOMkdQX3h3ZWFKBy54RkrBiC2yKJzm41a7BN4bhhTA62hHilI3llcABIK1wkR98ENxHNIic+W8FlZCXdwPLYUHp5VIrpcZCUCK2SA48mMFMcuZx/c6ztEQC6NgI6WseMOCorYPiFZSS5Akbjg9PoMepj8YYFtugRTTH23HC//x5w6/SMBG5lO6nQbGrT80D1ttoD3sHKGBLsM+v637+/fYuQNRbwfjHMwuNlsniMyDrZ5tyRdQ05WBZ2KpCznk3KUqJNZOWLb2tOyUpCWM36Bjn4ZVBhsNLWB56Fp2jFwjehz4vuFfUvNNh8NgrtLYuDzQakzPRZzDgP5Gc0ef8KBOoL9O339dHungJlgcgqICenbfAP1VN2TD03C9e0CzwsZgTagaJmuloqiwU8YYrQBtYi8lo680skENLw335WsbrKKpAyE2hlFoWNyijbgiK69P17Uugup8XjDjuNx1VoqiOgdmLDyO11D8aQzZYhipym94FkiVuBe8ok50vVAR49AD72CyUZfgEU38NXGe+1eoz0oROfWt5N9/1GVzg9JFcJFeUFqyprWScVV4PxA3F20itUKDdgwPHgUoGh1A8VZBIdWwwiLB03Dw6MEz2Af25hhY+BgJ0CCgWw7I6oOoyK6IHjh6EEFvz3JVWcMrZt57lqeMdSCtCUfiy86p+EL5kHiPycHiV3BMN62Ge3EMzvwRwXi0U7KMxl6kLU9eUbrZICXJawj80z3M/AMM4gFGzulYN36BOugHUVTa+KZ7hGIZVsB+LkaCUGz6auNcIDNLFfds53WOfw9zmx9gYCcg6lfrYPqrYOChJ0rTMrbua1Ttg4KE3FRR/fdl4K5em6f2rCgFCynqlOVgoqSQUy2tV+55aC+oai+UrDQi0Utqg9XCu5Y06VxW/48P0jLgQ3jfyCGy+P/wipX/wA=&lt;/diagram&gt;&lt;/mxfile&gt;"><defs/><g><rect x="19.5" y="34.5" width="120" height="120" fill="#ffffff" stroke="#000000" stroke-width="1.5" pointer-events="all"/><g transform="translate(-0.5 -0.5)scale(1.5)"><switch><foreignObject style="overflow: visible; text-align: left;" pointer-events="none" width="100%" height="100%" requiredFeatures="http://www.w3.org/TR/SVG11/feature#Extensibility"><div xmlns="http://www.w3.org/1999/xhtml" style="display: flex; align-items: unsafe center; justify-content: unsafe center; width: 78px; height: 1px; padding-top: 63px; margin-left: 14px;"><div style="box-sizing: border-box; font-size: 0; text-align: center; "><div style="display: inline-block; font-size: 12px; font-family: Helvetica; color: #000000; line-height: 1.2; pointer-events: all; white-space: normal; word-wrap: normal; "><font face="Courier New">myDate</font></div></div></div></foreignObject><text x="53" y="67" fill="#000000" font-family="Helvetica" font-size="12px" text-anchor="middle">myDate</text></switch></g><rect x="660" y="19.5" width="195" height="150" fill="#ffffff" stroke="#000000" stroke-width="1.5" pointer-events="all"/><g transform="translate(-0.5 -0.5)scale(1.5)"><switch><foreignObject style="overflow: visible; text-align: left;" pointer-events="none" width="100%" height="100%" requiredFeatures="http://www.w3.org/TR/SVG11/feature#Extensibility"><div xmlns="http://www.w3.org/1999/xhtml" style="display: flex; align-items: unsafe center; justify-content: unsafe center; width: 128px; height: 1px; padding-top: 63px; margin-left: 441px;"><div style="box-sizing: border-box; font-size: 0; text-align: center; "><div style="display: inline-block; font-size: 12px; font-family: Helvetica; color: #000000; line-height: 1.2; pointer-events: all; white-space: normal; word-wrap: normal; "><div><font face="Courier New"><br /></font></div><div><font face="Courier New">Object.prototype</font></div><div><font face="Courier New"><br /></font></div><div align="left"><font face="Courier New">hasOwnProperty()</font></div><div align="left"><font face="Courier New">isPrototypeOf()</font></div><div align="left"><font face="Courier New">...<br /></font></div><div align="left"><font face="Courier New"><br /></font></div></div></div></div></foreignObject><text x="505" y="67" fill="#000000" font-family="Helvetica" font-size="12px" text-anchor="middle">Object.prototype...</text></switch></g><path d="M 495 94.5 L 650.45 94.5" fill="none" stroke="#000000" stroke-width="1.5" stroke-miterlimit="10" pointer-events="stroke"/><path d="M 658.32 94.5 L 647.82 99.75 L 650.45 94.5 L 647.82 89.25 Z" fill="#000000" stroke="#000000" stroke-width="1.5" stroke-miterlimit="10" pointer-events="all"/><g transform="translate(-0.5 -0.5)scale(1.5)"><switch><foreignObject style="overflow: visible; text-align: left;" pointer-events="none" width="100%" height="100%" requiredFeatures="http://www.w3.org/TR/SVG11/feature#Extensibility"><div xmlns="http://www.w3.org/1999/xhtml" style="display: flex; align-items: unsafe center; justify-content: unsafe center; width: 1px; height: 1px; padding-top: 64px; margin-left: 384px;"><div style="box-sizing: border-box; font-size: 0; text-align: center; "><div style="display: inline-block; font-size: 11px; font-family: Helvetica; color: #000000; line-height: 1.2; pointer-events: all; background-color: #ffffff; white-space: nowrap; "><font face="Courier New">__proto__</font></div></div></div></foreignObject><text x="384" y="67" fill="#000000" font-family="Helvetica" font-size="11px" text-anchor="middle">__proto__</text></switch></g><rect x="1005" y="79.5" width="60" height="30" fill="none" stroke="none" pointer-events="all"/><g transform="translate(-0.5 -0.5)scale(1.5)"><switch><foreignObject style="overflow: visible; text-align: left;" pointer-events="none" width="100%" height="100%" requiredFeatures="http://www.w3.org/TR/SVG11/feature#Extensibility"><div xmlns="http://www.w3.org/1999/xhtml" style="display: flex; align-items: unsafe center; justify-content: unsafe center; width: 38px; height: 1px; padding-top: 63px; margin-left: 671px;"><div style="box-sizing: border-box; font-size: 0; text-align: center; "><div style="display: inline-block; font-size: 12px; font-family: Helvetica; color: #000000; line-height: 1.2; pointer-events: all; white-space: normal; word-wrap: normal; "><font face="Courier New">null</font></div></div></div></foreignObject><text x="690" y="67" fill="#000000" font-family="Helvetica" font-size="12px" text-anchor="middle">null</text></switch></g><path d="M 855 94.5 L 995.45 94.5" fill="none" stroke="#000000" stroke-width="1.5" stroke-miterlimit="10" pointer-events="stroke"/><path d="M 1003.32 94.5 L 992.82 99.75 L 995.45 94.5 L 992.82 89.25 Z" fill="#000000" stroke="#000000" stroke-width="1.5" stroke-miterlimit="10" pointer-events="all"/><g transform="translate(-0.5 -0.5)scale(1.5)"><switch><foreignObject style="overflow: visible; text-align: left;" pointer-events="none" width="100%" height="100%" requiredFeatures="http://www.w3.org/TR/SVG11/feature#Extensibility"><div xmlns="http://www.w3.org/1999/xhtml" style="display: flex; align-items: unsafe center; justify-content: unsafe center; width: 1px; height: 1px; padding-top: 64px; margin-left: 615px;"><div style="box-sizing: border-box; font-size: 0; text-align: center; "><div style="display: inline-block; font-size: 11px; font-family: Helvetica; color: #000000; line-height: 1.2; pointer-events: all; background-color: #ffffff; white-space: nowrap; "><font face="Courier New">__proto__</font></div></div></div></foreignObject><text x="615" y="67" fill="#000000" font-family="Helvetica" font-size="11px" text-anchor="middle">__proto__</text></switch></g><rect x="300" y="19.5" width="195" height="150" fill="#ffffff" stroke="#000000" stroke-width="1.5" pointer-events="all"/><g transform="translate(-0.5 -0.5)scale(1.5)"><switch><foreignObject style="overflow: visible; text-align: left;" pointer-events="none" width="100%" height="100%" requiredFeatures="http://www.w3.org/TR/SVG11/feature#Extensibility"><div xmlns="http://www.w3.org/1999/xhtml" style="display: flex; align-items: unsafe center; justify-content: unsafe center; width: 128px; height: 1px; padding-top: 63px; margin-left: 201px;"><div style="box-sizing: border-box; font-size: 0; text-align: center; "><div style="display: inline-block; font-size: 12px; font-family: Helvetica; color: #000000; line-height: 1.2; pointer-events: all; white-space: normal; word-wrap: normal; "><div><font face="Courier New"><br /></font></div><div><font face="Courier New">Date.prototype</font></div><div><font face="Courier New"><br /></font></div><div align="left"><font face="Courier New">getMonth()</font></div><div align="left"><font face="Courier New">getYear()</font></div><div align="left"><font face="Courier New">...<br /></font></div><div align="left"><font face="Courier New"><br /></font></div></div></div></div></foreignObject><text x="265" y="67" fill="#000000" font-family="Helvetica" font-size="12px" text-anchor="middle">Date.prototype...</text></switch></g><path d="M 139.5 94.5 L 290.45 94.5" fill="none" stroke="#000000" stroke-width="1.5" stroke-miterlimit="10" pointer-events="stroke"/><path d="M 298.32 94.5 L 287.82 99.75 L 290.45 94.5 L 287.82 89.25 Z" fill="#000000" stroke="#000000" stroke-width="1.5" stroke-miterlimit="10" pointer-events="all"/><g transform="translate(-0.5 -0.5)scale(1.5)"><switch><foreignObject style="overflow: visible; text-align: left;" pointer-events="none" width="100%" height="100%" requiredFeatures="http://www.w3.org/TR/SVG11/feature#Extensibility"><div xmlns="http://www.w3.org/1999/xhtml" style="display: flex; align-items: unsafe center; justify-content: unsafe center; width: 1px; height: 1px; padding-top: 64px; margin-left: 145px;"><div style="box-sizing: border-box; font-size: 0; text-align: center; "><div style="display: inline-block; font-size: 11px; font-family: Helvetica; color: #000000; line-height: 1.2; pointer-events: all; background-color: #ffffff; white-space: nowrap; "><font face="Courier New">__proto__</font></div></div></div></foreignObject><text x="145" y="67" fill="#000000" font-family="Helvetica" font-size="11px" text-anchor="middle">__proto__</text></switch></g></g><switch><g requiredFeatures="http://www.w3.org/TR/SVG11/feature#Extensibility"/><a transform="translate(0,-5)" xlink:href="https://www.diagrams.net/doc/faq/svg-export-text-problems" target="_blank"><text text-anchor="middle" font-size="10px" x="50%" y="100%">Viewer does not support full SVG 1.1</text></a></switch></svg>
